X:1
T:D Major Samuel Holyoke, 1791
T:Issac Watts, 1717 (Psalm 97, Part 2)        88. 88. (L. M.) 
T:Arnheim Treble-Tenor-Bass transcribed from Harmonia Americana , 1791; Counter written by B. C. Johnston, 2016.
%%score [ 1 2 ( 3 4 ) 5 ]
L:1/8
Q:1/4=160
M:4/4
K:D
V:1 treble nm="Tr." snm="Tr."
V:2 treble nm="C." snm="C."
V:3 treble-8 nm="T." snm="T."
V:4 treble-8 
V:5 bass nm="B." snm="B."
V:1
"^1.  All   ye    bright armies   of      the   skies,   Go, worship where the Savior lies;    Angels and kings before him bow,   Those  gods  on  high  and  gods below." D8 | %1
 (F2 A2) (A2 d2) | d4 A4 | (B2 A2) (A2 G2) | F8 || A8 | B4 c4 | d6 d2 | c4 B4 | A8 || B8 | B4 B4 | %12
 c6 A2 | d4 e4 | f8 || f8 | f4 f4 | e6 a2 | (g2 f2) e4 | f8 |] %20
V:2
"^2. The   Lord  is   come; the heav'ns proclaim  His birth; the nations learn his name;  An unknown star directs the road  Of   eastern   sa  –  ges  to  their  God." F8 | %1
 (D2 F2) (F2 D2) | F4 A4 | (B2 A2) (F2 E2) | F8 || F8 | G4 E4 | D6 D2 | C4 E4 | E8 || E8 | G4 B4 | %12
 A6 F2 | F4 A4 | F8 || F8 | D4 F4 | A6 A2 | (G2 F2) E4 | D8 |] %20
V:3
"^3. Let     i   –  dols   tot–ter to  the    ground,  And their own worshippers confound  But Judah shout, but  Zion  sing,   And  earth  confess  her  sovereign  King." F8 | %1
 (D2 F2) F4 | F4 F4 | (G2 F2) (F2 E2) | D8 || F8 | G4 G4 | F6 A2 | A4 ^G4 | A8 || e8 | e4 e4 | %12
 e6 f2 | f4 [ca]4 | [da]8 || [Ada]8 | [Ada]4 [da]4 | a4 (a2 f2) | (e2 d2) c4 | d8 |] %20
V:4
 x8 | x8 | x8 | x8 | x8 || x8 | x8 | x8 | x8 | x8 || x8 | x8 | x8 | x8 | x8 || x8 | x8 | c6 d2 | %18
 x8 | x8 |] %20
V:5
 D,8 | D,4 D,4 | D,4 D,4 | D,4 A,,4 | D,8 || D,8 | G,4 E,4 | D,6 D,2 | E,4 E,4 | A,,8 || E,8 | %11
 E,4 E,4 | A,6 D,2 | D,4 A,4 | D8 || D8 | D4 D4 | A,6 D,2 | G,2 A,2 A,,4 | [D,,D,]8 |] %20

